X:1
T:Title
T:London Waltz
T:Composer : Tomohito Nishiura Guitar arrangement : Rami Bazan 
C:Composer
%%score ( 1 2 ) ( 3 4 )
L:1/8
Q:1/4=60
M:3/4
K:G
V:1 treble-8 nm="Guitare classique" snm="Guit."
V:2 treble-8 
V:3 treble-8 nm="Guitare classique" snm="Guit."
V:4 treble-8 
V:1
 E[GB] [Be] [eg]3 | E[GB] [Be] [eg]2 B | e2 (3f/g/a/ b2 e | ^d2 c' b3 | a2 (3g/f/e/ f2 g/a/ | %5
 b4 z b | c'2 (3d'/c'/b/ c'2 z/ a/ | c'3 b3 | a2 (3b/a/g/ f2 g | f4 z B | e2 (3f/g/a/ b2 e | %11
 ^d2 c' b3 | a2 (3g/f/e/ f2 g/a/ | b4 z b | c'2 (3d'/c'/b/ c'2 z/ a/ | c'3 b3 | a2 (3b/a/g/ f2 ^d | %17
 e6 | z [B,EG] [B,EG] z/ [B,EG]/ [B,EG][B,EG] | z [B,EG] [B,EG] z/ [B,EG]/ [B,EG][B,EG] | %20
 z [B,EG] [B,EG] z/ [B,EG]/ [B,EG][B,EG] | z [B,EG] [B,EG] z/ [B,EG]/ [B,EG][B,EGB] | %22
 e2 (3f/g/a/ b2 e | ^d2 c' b3 | a2 (3g/f/e/ f2 g/a/ | b4 z b | c'2 (3d'/c'/b/ c'2 z/ a/ | c'3 b3 | %28
 a2 (3b/a/g/ f2 ^d | e4 z/ ^g/a/b/ | c'b a f2 z/ d/ | ab f e2 z/ e/ | ba g f2 e | %33
 d2 z3/2 e/ ^g/a/b/-b/ | c'b a f2 z/ d/ | ab f e2 z/ e/ | ba g f2 ^d | e3 d ef | gB>Bg B>B | %39
 gB ba d>B | cd e f2 e | d3 e>^de/f/ | gB>Bg B>B | gB ba b>B | cd ef z/ B/e/f/ | gB>Bg B>B | %46
 gB ba d>B | cd e f2 e | d3 e>^de/f/ | gB>Bg B>B | gB ba b>B | c'd' e'f' z/ B/e/f/ | gB>Bg B>B | %53
 gB ba d>B | cd e f2 e | d3 e>^de/f/ | gB>Bg B>B | gB ba b>B | cd e f2 ^d | e2 f g2 a | %60
 b2 e' f'2 e' | g'2 B !arpeggio![egb]3 |] %62
V:2
 x6 | x6 | E,2 z2 z z | B3 z ^DD | D2 z4 | G3 ^G3 | A,3 z A,A, | G3 E,3 | A,3 z z C | ^D4 z2 | %10
 E,2 z2 z z | B3 z ^DD | D2 z4 | G3 ^G3 | A,3 z A,A, | G3 E,3 | A,3 z z z | z z z E,3 | x6 | x6 | %20
 x6 | x6 | E,2 z2 z z | B3 z ^DD | D2 z4 | G3 ^G3 | A,3 z A,A, | G3 E,3 | A,3 z z z | z4 E,3/2 z/ | %30
 A,3 D3 | G,3 E,3 | A,3 D3 | G,3 ^G,3 | A,3 D3 | G,3 E,3 | A,3 B,3 | E,6 | E3 D3 | C3 D3 | A,3 D3 | %41
 G,3 F,3 | E3 D3 | C3 D3 | A,3 B,3 | E3 D3 | C3 D3 | A,3 D3 | G,3 F,3 | E3 D3 | C3 D3 | A,3 B3 | %52
 E3 D3 | C3 D3 | A,3 D3 | G,3 F,3 | E3 D3 | C3 D3 | A,3 z z2 | E3 ^D3 | D3 ^c'3 | c'3 z z2 |] %62
V:3
 E,3 z z2 | E,3 z z2 | E[GB] [GB]E [GB][GB] | ^D[FA] [FA]D [FA][FA] | D[FA] [FA]D [FA][FA] | %5
 G[Bd] [Bd]^G [Bd][Bd] | A[ce] GF [Ac][Ac] | G[Bd] FE [GB][GB] | A[ce] [ce]A [ce][ce] | %9
 ^D[FA] [FA] [DFB]3 | E[GB] [GB]E [GB][GB] | ^D[FA] [FA]D [FA][FA] | D[FA] [FA]D [FA][FA] | %13
 G[Bd] [Bd]^G [Bd][Bd] | A[ce] GF [Ac][Ac] | G[Bd] FE [GB][GB] | A[ce] [ce]^D [FB][FB] | %17
 E[GB] [GB] [GB]3 | E3 B,3 | E3 B,3 | E3 B,3 | E3 B,3 | E[GB] [GB]E [GB][GB] | %23
 ^D[FA] [FA]D [FA][FA] | D[FA] [FA]D [FA][FA] | G[Bd] [Bd]^G [Bd][Bd] | A[ce] GF [Ac][Ac] | %27
 G[Bd] FE [GB][GB] | A[ce] [ce]^D [FB][FB] | E[GB] [GB] [GB]3 | A[ce] [ce]D [FA][FA] | %31
 G[Bd] [Bd]E [GB][GB] | A[ce] [ce]D [FA][FA] | G[Bd] [Bd]^G [Bd][Bd] | A[ce] [ce]D [FA][FA] | %35
 G[Bd] [Bd]E [GB][GB] | A[ce] [ce]^D [FB][FB] | E[GB] [GB] [EGB]3 | EG BD GB | CG BD FA | %40
 A,C ED FA | GB d [FA]3 | EG BD GB | CG BD FA | A,C EB, DF | EG BD GB | CG BD FA | A,C ED FA | %48
 GB d [FA]3 | EG BD GB | CG BD FA | A,C EB, DF | EG BD GB | CG BD FA | A,C ED FA | GB d [FA]3 | %56
 EG BD GB | CG BD FA | A,C EB, DF | EG B^D GB | DG B^C GB | CG B4 |] %62
V:4
 x6 | x6 | E,3 E,3 | B,3 B,3 | A,3 A,3 | G,3 ^G,3 | A,3 z z2 | G,3 z z2 | A,3 A,3 | B,3 B,3 | %10
 E,3 E,3 | B,3 B,3 | A,3 A,3 | G,3 ^G,3 | A,3 z z2 | G,3 z z2 | A,3 B,3 | E,3 E,3 | E,3 z z2 | %19
 E,3 z z2 | E,3 z z2 | E,3 z z2 | E,3 E,3 | B,3 B,3 | A,3 A,3 | G,3 ^G,3 | A,3 z z2 | G,3 z z2 | %28
 A,3 B,3 | E,3 z z2 | A,3 A,3 | G,3 E,3 | A,3 A,3 | G,3 ^G,3 | A,3 A,3 | G,3 E,3 | A,3 B,3 | %37
 E,3 E,3 | E,3 z z2 | x6 | x6 | z3 F,3 | E,3 z z2 | x6 | x6 | E,3 z z2 | x6 | x6 | z3 F,3 | %49
 E,3 z z2 | x6 | x6 | E,3 z z2 | x6 | x6 | z3 F,3 | E,3 z z2 | x6 | x6 | E,3 z z2 | x6 | z2 E,4 |] %62

